X: 25570
T: Mariposa
R: reel
M: 4/4
K: Dmajor
|:e4 dcBA|cBAB F3E|F2AF EFAB|c2B2 B2cd
e4 dcBA|cBAB F3E|F2AF EFEC|B,2A,2 A,4:|
|:F2AF EFAB|c2BA F2FE|F2AF EFAB c2B2 B4
[1 F2AF EFAB|c2BA F2FE|F2AF EFEC|B,2A,2 A,4:|
[2 e4 dcBA|cBAB F3E|F2AF EFEC|B,2A,2 A,4||

